src/assets/icons/icon-github.svg

<?xml version="1.0" encoding="UTF-8"?>
<svg xmlns="http://www.w3.org/2000/svg" xmlns:xlink="http://www.w3.org/1999/xlink" width="24px" height="24px" viewBox="0 0 24 23" version="1.1">
<g id="surface1">
<path style=" stroke:none;fill-rule:evenodd;fill:currenColor;fill-opacity:1;" d="M 11.964844 0 C 5.347656 0 0 5.269531 0 11.792969 C 0 17.003906 3.425781 21.417969 8.179688 22.976562 C 8.773438 23.09375 8.992188 22.722656 8.992188 22.410156 C 8.992188 22.136719 8.972656 21.203125 8.972656 20.226562 C 5.644531 20.929688 4.953125 18.820312 4.953125 18.820312 C 4.417969 17.453125 3.625 17.101562 3.625 17.101562 C 2.535156 16.378906 3.703125 16.378906 3.703125 16.378906 C 4.914062 16.457031 5.546875 17.589844 5.546875 17.589844 C 6.617188 19.386719 8.339844 18.878906 9.03125 18.566406 C 9.132812 17.804688 9.449219 17.277344 9.785156 16.984375 C 7.132812 16.710938 4.339844 15.695312 4.339844 11.167969 C 4.339844 9.878906 4.8125 8.824219 5.566406 8.003906 C 5.445312 7.710938 5.03125 6.5 5.683594 4.878906 C 5.683594 4.878906 6.695312 4.566406 8.972656 6.089844 C 9.949219 5.832031 10.953125 5.703125 11.964844 5.699219 C 12.972656 5.699219 14.003906 5.835938 14.957031 6.089844 C 17.234375 4.566406 18.242188 4.878906 18.242188 4.878906 C 18.898438 6.5 18.480469 7.710938 18.363281 8.003906 C 19.136719 8.824219 19.589844 9.878906 19.589844 11.167969 C 19.589844 15.695312 16.796875 16.691406 14.125 16.984375 C 14.558594 17.355469 14.933594 18.058594 14.933594 19.171875 C 14.933594 20.753906 14.914062 22.019531 14.914062 22.410156 C 14.914062 22.722656 15.132812 23.09375 15.726562 22.976562 C 20.480469 21.414062 23.910156 17.003906 23.910156 11.792969 C 23.929688 5.269531 18.558594 0 11.964844 0 Z M 11.964844 0 "/>
</g>
</svg>

<svg xmlns="http://www.w3.org/2000/svg" viewBox="0 0 24 23"><path fill="currentColor" fill-rule="evenodd" d="M11.965 0C5.348 0 0 5.27 0 11.793c0 5.21 3.426 9.625 8.18 11.184.593.117.812-.254.812-.567 0-.273-.02-1.207-.02-2.183-3.327.703-4.019-1.407-4.019-1.407-.535-1.367-1.328-1.718-1.328-1.718-1.09-.723.078-.723.078-.723 1.211.078 1.844 1.21 1.844 1.21 1.07 1.798 2.793 1.29 3.484.977.102-.761.418-1.289.754-1.582-2.652-.273-5.445-1.289-5.445-5.816 0-1.29.473-2.344 1.226-3.164-.12-.293-.535-1.504.118-3.125 0 0 1.011-.313 3.289 1.21a11.89 11.89 0 012.992-.39c1.008 0 2.039.137 2.992.39 2.277-1.523 3.285-1.21 3.285-1.21.656 1.621.238 2.832.121 3.125.774.82 1.227 1.875 1.227 3.164 0 4.527-2.793 5.523-5.465 5.816.434.371.809 1.075.809 2.188 0 1.582-.02 2.848-.02 3.238 0 .313.219.684.813.567 4.753-1.563 8.183-5.973 8.183-11.184C23.93 5.27 18.56 0 11.965 0zm0 0"/></svg>
